icons/number-24.svg

<svg width="24" height="24" viewBox="0 0 24 24" fill="none" xmlns="http://www.w3.org/2000/svg">
<path fill-rule="evenodd" clip-rule="evenodd" d="M8.11357 2.09402C8.35204 2.22619 8.5 2.47736 8.5 2.75V9H9.75237C10.1666 9 10.5024 9.33579 10.5024 9.75C10.5024 10.1642 10.1666 10.5 9.75237 10.5H5.75C5.33579 10.5 5 10.1642 5 9.75C5 9.33579 5.33579 9 5.75 9H7L7 4.10319L6.1475 4.636C5.79625 4.85553 5.33354 4.74875 5.11401 4.3975C4.89447 4.04625 5.00125 3.58354 5.3525 3.364L7.3525 2.114C7.5837 1.9695 7.87511 1.96185 8.11357 2.09402ZM13.0028 7.75403C13.0028 7.33982 13.3386 7.00403 13.7528 7.00403H18.9852C19.2886 7.00403 19.562 7.18676 19.6781 7.46702C19.7942 7.74727 19.73 8.06986 19.5155 8.28436L16.7388 11.0611C17.2892 11.1583 17.7958 11.314 18.2315 11.5438C19.1365 12.0213 19.7352 12.8282 19.7352 13.9624C19.7352 14.9276 19.2638 15.7122 18.5634 16.2328C17.8764 16.7434 16.9757 17.0015 16.042 17.0015C14.6751 17.0015 13.768 16.4742 13.3754 16.2456C13.0175 16.0372 12.8963 15.578 13.1047 15.2201C13.3131 14.8621 13.7723 14.7409 14.1302 14.9494C14.461 15.142 15.0833 15.5015 16.042 15.5015C16.7146 15.5015 17.2855 15.3137 17.6686 15.0289C18.0381 14.7542 18.2352 14.3943 18.2352 13.9624C18.2352 13.4614 18.0163 13.1263 17.5315 12.8705C16.9945 12.5872 16.1565 12.4283 15.0609 12.4283C14.7576 12.4283 14.4841 12.2456 14.368 11.9653C14.2519 11.6851 14.3161 11.3625 14.5306 11.148L17.1745 8.50403H13.7528C13.3386 8.50403 13.0028 8.16824 13.0028 7.75403ZM7.8811 15.215C7.32659 15.1516 6.71287 15.423 6.43486 16.0458C6.266 16.424 5.82249 16.5937 5.44426 16.4249C5.06603 16.256 4.8963 15.8125 5.06515 15.4343C5.63969 14.1473 6.9225 13.5957 8.0514 13.7247C8.62024 13.7897 9.18265 14.0298 9.60824 14.4678C10.0421 14.9144 10.2931 15.5258 10.2931 16.2458C10.2931 17.8872 9.03908 18.6825 8.1733 19.2317C7.63483 19.5732 6.9928 19.9256 6.67838 20.5049H9.75C10.1642 20.5049 10.5 20.8407 10.5 21.2549C10.5 21.6691 10.1642 22.0049 9.75 22.0049H5.75001C5.33579 22.0049 5.00001 21.6691 5.00001 21.2549C5.00001 19.4563 6.33669 18.6247 7.24272 18.0458C8.27502 17.3863 8.79308 17.0137 8.79308 16.2458C8.79308 15.8899 8.67651 15.6614 8.53236 15.513C8.37996 15.3562 8.15395 15.2462 7.8811 15.215Z" fill="#24292E"/>
</svg>

<svg xmlns="http://www.w3.org/2000/svg" width="24" height="24" viewBox="0 0 24 24"><path fill-rule="evenodd" d="M8.114 2.094a.75.75 0 01.386.656V9h1.252a.75.75 0 110 1.5H5.75a.75.75 0 010-1.5H7V4.103l-.853.533a.75.75 0 01-.795-1.272l2-1.25a.75.75 0 01.762-.02zm4.889 5.66a.75.75 0 01.75-.75h5.232a.75.75 0 01.53 1.28l-2.776 2.777c.55.097 1.057.253 1.492.483.905.477 1.504 1.284 1.504 2.418 0 .966-.471 1.75-1.172 2.27-.687.511-1.587.77-2.521.77-1.367 0-2.274-.528-2.667-.756a.75.75 0 01.755-1.297c.331.193.953.553 1.912.553.673 0 1.243-.188 1.627-.473.37-.275.566-.635.566-1.067 0-.5-.219-.836-.703-1.091-.538-.284-1.375-.443-2.471-.443a.75.75 0 01-.53-1.28l2.643-2.644h-3.421a.75.75 0 01-.75-.75zM7.88 15.215a1.4 1.4 0 00-1.446.83.75.75 0 01-1.37-.61 2.9 2.9 0 012.986-1.71 2.565 2.565 0 011.557.743c.434.446.685 1.058.685 1.778 0 1.641-1.254 2.437-2.12 2.986-.538.341-1.18.694-1.495 1.273H9.75a.75.75 0 010 1.5h-4a.75.75 0 01-.75-.75c0-1.799 1.337-2.63 2.243-3.21 1.032-.659 1.55-1.031 1.55-1.8 0-.355-.116-.584-.26-.732a1.068 1.068 0 00-.652-.298z"/></svg>
